!!!!SEGMENT: pl-kk--kk-i-389--004-005_anonim--missa-no-4-sanctus.krn
!!!cenid: 17xx:2480
!!!COM: Anonim
!!!COM-rismID: pe30004985
!!!CDT:
!!!CNT:
!!!OPR: [Missa] No. 4.
!!!OTL: Sanctus
!!!OMV: 005
!!!PDT:
!!!AGN: Sacred; Mass
!!!YEC: Copyright 2022 Narodowy Instytut Fryderyka Chopina (https://polishscores.org)
!!!YEM: License CC-BY-4.0 (https://creativecommons.org/licenses/by/4.0)
!!!SMS-siglum: PL-Kk
!!!SMS-shelfmark: Kk.I.389
!!!SMS-variant:
!!!SMS-altvar:
!!!SMS-shelfwork: 004-005 M
!!!NIFC-rismSourceID: 1001146182
!!!NIFC-rismChildID: 1001146623
!!!NIFC-islandoraID: pl-kk:6976
!!!URL-pdf-islandora: https://repozytorium.nifc.pl/islandora/object/pl-kk%3A6976/datastream/PDF/view
!!!URL-scan: https://polish.musicsources.pl/pl/lokalizacje/galeria/rekopisy/5999/1 @EN{Scan on Polish Music Sources Website} @PL{Skany w portalu Dziedzictwo Muzyki Polskiej w otwartym dostępie}
!!!IIIF:
!!!ONB-nifc: UWAGA: S – skan 8-9, A – 27-28 , T –46-47 , B – 65-66 . Części Mszy: Rorate, Kyrie, Gloria, Graduale, Sanctus, Benedictus, Agnus, Dona
!!!AIN: 1 alto 1 bass 1 soprn 1 tenor
!!!key: F
**kern	**text	**kern	**text	**kern	**text	**kern	**text
*part4	*part4	*part3	*part3	*part2	*part2	*part1	*part1
*staff4	*staff4	*staff3	*staff3	*staff2	*staff2	*staff1	*staff1
*I"Basso.	*	*I"Tenore.	*	*I"Alto.	*	*I"Soprano.	*
*I'[B]	*	*I'[T]	*	*I'[A]	*	*I'[S]	*
*ICvox	*	*ICvox	*	*ICvox	*	*ICvox	*
*Ibass	*	*Itenor	*	*Ialto	*	*Isoprn	*
*clefF4	*	*clefC4	*	*clefC3	*	*clefC1	*
*k[b-]	*	*k[b-]	*	*k[b-]	*	*k[b-]	*
*F:	*	*F:	*	*F:	*	*F:	*
*M2/2	*	*M2/2	*	*M2/2	*	*M2/2	*
*met(C.|)	*	*met(C.|)	*	*met(C.|)	*	*met(C.|)	*
=1	=1	=1	=1	=1	=1	=1	=1
!!LO:TX:t=P:problem: all\right	!	!	!	!	!	!	!
*2\right	*	*2\right	*	*2\right	*	*2\right	*
2F\	San-	2c\	San-	2f\	San-	2a\	San-
2C/	-ctus	2c\	-ctus	2e\	-ctus	2g\	-ctus,
=2	=2	=2	=2	=2	=2	=2	=2
!LO:TX:a:t=2	!	!	!	!	!	!	!
0r	.	4F/	san-	8f\L	San-	8a\L	san-
.	.	.	.	8e\	.	8g\	.
.	.	4G/	.	8f\	.	8a\	.
.	.	.	.	8g\J	.	8b-\J	.
.	.	4A/	.	8f\L	.	8a\L	.
.	.	.	.	8a\	.	8cc\	.
.	.	4B-\	.	8g\	.	8b-\	.
.	.	.	.	8f\J	.	8a\J	.
=3	=3	=3	=3	=3	=3	=3	=3
.	.	2c\	-ctus,	2e\	-ctus	2g\	-ctus,
.	.	2r	.	2r	.	2r	.
=4	=4	=4	=4	=4	=4	=4	=4
2D\	San-	2A\	San-	2f\	San-	2dd\	San-
2AA/	-ctus	2A\	-ctus	2e\	-ctus	2cc#X\	-ctus,
=5	=5	=5	=5	=5	=5	=5	=5
!	!	!LO:TX:a:t=2	!	!	!	!	!
4D\	San-	0r	.	8f\L	san-	8dd\L	san-
.	.	.	.	8e\	.	8cc#X\	.
4E\	.	.	.	8f\	.	8dd\	.
.	.	.	.	8g\J	.	8ee\J	.
4F\	.	.	.	8f\L	.	8dd\L	.
.	.	.	.	8a\	.	8ff\	.
4G\	.	.	.	8g\	.	8ee\	.
.	.	.	.	8f\J	.	8dd\J	.
!	!	!	!	!	!	!LO:LB:g=original	!
=6	=6	=6	=6	=6	=6	=6	=6
2A\	-ctus	.	.	2e\	-ctus,	2cc#X\	-ctus,
2r	.	.	.	2r	.	2r	.
!	!	!	!	!LO:LB:g=original	!	!	!
=7	=7	=7	=7	=7	=7	=7	=7
4.B-X\	Do-	4.G/	Do-	4.e\	Do-	4.cc#X\	Do-
8B-\	-mi-	8G/	-mi-	8e\	-mi-	8cc#\	-mi-
2B-\	-nus	2G/	-nus	2e\	-nus	2cc#\	-nus
=8	=8	=8	=8	=8	=8	=8	=8
4A\	De-	4F/	De-	4d\	De-	4dd\	De-
4G\	.	4G/	.	4e\	.	4cc#X\	.
!	!	!LO:LB:g=original	!	!	!	!	!
4F\	.	4A/	.	4f\	.	4dd\	.
4E\	-us	4G/	-us	4e\	-us	4cc#\	-us
!LO:LB:g=original	!	!	!	!	!	!	!
=9	=9	=9	=9	=9	=9	=9	=9
4D\	sa-	2A\	sa-	2f\	sa-	2dd\	sa-
4F\	.	.	.	.	.	.	.
!	!	!LO:TX:t=P:problem:podwójna linia taktowa	!	!	!	!	!
4A\	.	2A\	-ba-	4e\	.	4cc#X\	.
4AA/	-ba-	.	.	4e\	-ba-	4cc#\	-ba-
=10	=10	=10||	=10||	=10	=10	=10	=10
4D\	-ot,	4A\	-ot,	4d\	-ot,	4dd\	-ot,
4F\	Ple-	4c\	Ple-	4a\	ple-	4ccn\	ple-
4A\	-ni	4A\	-ni	4f\	-ni	4cc\	-ni
4F\	sunt	4c\	sunt	4a\	sunt	4cc\	sunt
=11	=11	=11	=11	=11	=11	=11	=11
4c\	ce-	4f\	ce-	4a\	ce-	2cc\	ce-
4C/	.	4e\	.	4g\	.	.	.
2C/	-li	2e\	-li,	2g\	-li	2cc\	-li,
=12	=12	=12	=12	=12	=12	=12	=12
4r	.	4r	.	4r	.	4r	.
4C/	ce-	4c\	ce-	4g\	ce-	4ee\	ce-
4E/	-li	4c\	-li	4g\	-li	4ee\	-li
4C/	et	4c\	et	4g\	et	4ee\	et
!	!	!	!	!	!	!LO:LB:g=original	!
=13	=13	=13	=13	=13	=13	=13	=13
2F\	ter-	2c\	ter-	2a\	ter-	2ff\	ter-
2F\	-ra	2c\	-ra,	2a\	-ra	2ff\	-ra,
=14	=14	=14	=14	=14	=14	=14	=14
4BB-/	glo-	1F	glo-	1b-	glo-	1dd	glo-
4C/	.	.	.	.	.	.	.
4D/	.	.	.	.	.	.	.
4E\	.	.	.	.	.	.	.
!	!	!	!	!LO:LB:g=original	!	!	!
=15	=15	=15	=15	=15	=15	=15	=15
4F\	.	4A\	.	4a\	.	4cc\	.
4G\	.	4B-\	.	4g\	.	4b-\	.
4A\	-ri-	4c\	-ri-	4f\	-ri-	4a\	-ri-
4F\	-a	4A\	-a	4g\	-a	4cc\	-a
!LO:LB:g=original	!	!LO:LB:g=original	!	!	!	!	!
=16	=16	=16	=16	=16	=16	=16	=16
4B-\	tu-	1c	tu-	2g\	tu-	2b-\	tu-
4G\	.	.	.	.	.	.	.
4c\	.	.	.	2e\	.	2g\	.
4C/	.	.	.	.	.	.	.
=17	=17	=17	=17	=17	=17	=17	=17
2F\	-a	1c	-a	1f	-a,	1a	-a,
2r	.	.	.	.	.	.	.
=18||	=18||	=18||	=18||	=18||	=18||	=18||	=18||
*M2/2	*	*M2/2	*	*M2/2	*	*	*
*met(C.|)	*	*met(C.|)	*	*met(C.|)	*	*	*
4F\	O-	4c\	O-	1f	O-	4a\	O-
4G\	.	4B-\	.	.	.	4b-\	.
4A\	.	4A\	.	.	.	4cc\	.
4G\	.	4B-\	.	.	.	4b-\	.
=19	=19	=19	=19	=19	=19	=19	=19
4F\	-san-	4c\	-san-	4c\	-san-	4a\	-san-
4F\	-na	4c\	-na	4c\	-na	4a\	-na
4F\	in	4c\	in	4f\	in	4a\	in
4G\	ex-	4c\	ex-	4g\	ex-	4b-\	ex-
=20	=20	=20	=20	=20	=20	=20	=20
2F\	-cel-	2c\	-cel-	2f\	-cel-	2a\	-cel-
2C/	-sis,	2c\	-sis,	2e\	-sis,	2g\	-sis,
=21	=21	=21	=21	=21	=21	=21	=21
2C/	O-	2G/	O-	2f\	O-	2cc\	o-
!	!	!	!	!	!	!LO:LB:g=original	!
4E\	-san-	4G/	-san-	4g\	-san-	4cc\	-san-
4C\	-na	4G/	-na	4e\	-na	4cc\	-na
=22	=22	=22	=22	=22	=22	=22	=22
2F\	in	2c\	in	4a\	in	2ff\	in
.	.	.	.	4a\	ex-	.	.
!LO:LB:g=original	!	!LO:LB:g=original	!	!	!	!	!
4E\	.	2c\	ex-	4b-\	-cel-	4gg\	.
4F\	ex-	.	.	4a\	.	4ff\	ex-
!	!	!	!	!LO:LB:g=original	!	!	!
=23	=23	=23	=23	=23	=23	=23	=23
2C/	-cel-	2c\	-cel-	2a\	-sis,	2ff\	-cel-
2C/	-sis,	2c\	-sis,	2g\	o-	2ee\	-sis,
=24	=24	=24	=24	=24	=24	=24	=24
4F\	O-	2c\	O-	2f\	-san-	2a\	o-
4G\	.	.	.	.	.	.	.
4A\	-san-	2e-X\	.	2c\	-na	2a\	-san-
4F\	.	.	.	.	.	.	.
=25	=25	=25	=25	=25	=25	=25	=25
2B-\	-na,	2f\	-san-	2d\	in	2b-\	-na
4BB-/	in	2B-\	-na	4g\	.	4ee\	in
4BB-/	ex-	.	.	4a\	ex-	4ff\	ex-
=26	=26	=26	=26	=26	=26	=26	=26
2.BB-/	-cel-	2d\	in	4b-\	-cel-	4gg\	-cel-
.	.	.	.	4a\	.	4ff\	.
.	.	2d\	ex-	4g\	.	4ee\	.
4BBn/	.	.	.	4f\	.	4dd\	.
=27	=27	=27	=27	=27	=27	=27	=27
2C/	-sis,	4c\	-cel-	2g\	-sis,	2ee\	-sis,
.	.	4c\	-sis,	.	.	.	.
2r	.	2r	.	2r	.	2r	.
=28	=28	=28	=28	=28|:	=28	=28	=28
4C/	O-	1en	O-	1b-	O-	1gg	O-
4D/	.	.	.	.	.	.	.
4E/	-san-	.	.	.	.	.	.
4C/	-na	.	.	.	.	.	.
=29	=29	=29	=29	=29	=29	=29	=29
4F\	in	2c\	-san-	2a\	-san-	2ff\	-san-
4G\	.	.	.	.	.	.	.
4A\	.	2A\	-na	2f\	-na	2cc\	-na
4F\	ex-	.	.	.	.	.	.
!	!	!	!	!	!	!LO:LB:g=original	!
=30	=30	=30	=30	=30	=30	=30	=30
4B-\	-cel-	4B-\	in	4g\	in	4dd\	in
4G\	.	4B-\	ex-	4g\	ex-	4dd\	ex-
!LO:LB:g=original	!	!	!	!	!	!	!
4c\	.	2G/	-cel-	2e\	-cel-	2cc\	-cel-
4C/	.	.	.	.	.	.	.
!	!	!LO:LB:g=original	!	!	!	!	!
=31	=31	=31	=31	=31	=31	=31	=31
2F\	-sis.	2A\	-sis	2f\	-sis.	2cc\	-sis,
2r	.	2r	.	2r	.	2r	.
=32	=32	=32	=32	=32:|	=32:|	=32	=32
!	!	!	!	!LO:TX:t=P:problem:dla głosu Alto takty 28-31 powtórzone	!	!	!
4G\	O-	1en	O-	1b-yy	O-	1gg	O-
4F\	.	.	.	.	.	.	.
4E\	.	.	.	.	.	.	.
4C/	.	.	.	.	.	.	.
=33	=33	=33	=33	=33	=33	=33	=33
4F\	-san-	2c\	-san-	2a\yy	-san-	4ff\	-san-
4c\	-na	.	.	.	.	4ff\	-na
4A\	in	2A\	-na	2f\yy	-na	4cc\	in
4F\	ex-	.	.	.	.	4cc\	ex-
=34	=34	=34	=34	=34	=34	=34	=34
4BB-/	-cel-	4B-\	in	4g\yy	in	2dd\	-cel-
4GG/	.	4B-\	ex-	4g\yy	ex-	.	.
2C/	.	2G/	-cel-	2e\yy	-cel-	2dd\	.
=35	=35	=35	=35	=35	=35	=35	=35
2FF/	-sis.	2A\	-sis.	2f\yy	-sis.	1cc	-sis.
2r	.	2r	.	2ryy	.	.	.
==	==	==	==	==	==	==	==
*-	*-	*-	*-	*-	*-	*-	*-
!!!system-decoration: [(s1,s2,s3,s4)]
!!!ENC: Andrzej Gręziak
!!!END: 2023-11-07
!!!EED: Jan Barakat
!!!EEV: 2023-11-30
